outputs/icons/action/calendar_alt_2_sharp.svg

<svg xmlns="http://www.w3.org/2000/svg" width="1200" height="1200" fill="none"><g clip-path="url(#a)"><path fill="#000" d="M850 650H600v250h250zm-50-550v100H400V100H300v100H150.5l-.5 900h900V200H900V100zm150 900H250V450h700z"/></g><defs><clipPath id="a"><path fill="#fff" d="M0 0h1200v1200H0z"/></clipPath></defs></svg>

<svg width="1200" height="1200" viewBox="0 0 1200 1200" fill="none" xmlns="http://www.w3.org/2000/svg"><g clip-path="url(#clip0_117_769)"><path d="M850 650H600V900H850V650ZM800 100V200H400V100H300V200H150.5L150 1100H1050V200H900V100H800ZM950 1000H250V450H950V1000Z" fill="#1D1E23"/></g><defs><clipPath id="clip0_117_769"><path width="24" fill="white" d="M0 0H1200V1200H0V0z"/></clipPath></defs></svg>
